X:229
T:Ap Shenkin TS.229
M:6/8
L:1/8
Q:3/8=120
S:Thomas Sands’ MS,1810,Lincolnshire
R:jig
C:Note next to title in MS “Welch”
O:England;Lincolnshire
Z:vmp.Ruairidh Greig, 2011
K:D
(A/G/)|F2F Fdc|B2B Bcd|A>BA AGF|FEE EAG|
F2F Fdc|B2B Bcd|ABA GFE|DDDD2:|
|:”qu. in ms”d/e/|f2de2c|dcB AGF|GAB (Ad)F|FEEE2(d/e/)|
f2de2c|dcB edc|fed cdB|Adc “Da Capo”BAG|]

